Newaita-dark/actions/16/draw-triangle4.svg

<svg height="16" viewBox="0 0 16 16" width="16" xmlns="http://www.w3.org/2000/svg"><path d="m7.96875 13.351562c.226562-.011718.429688-.136718.542969-.332031l5.289062-9.261719c.117188-.203124.117188-.453124 0-.65625-.117187-.203124-.335937-.328124-.570312-.328124h-10.585938c-.234375 0-.449219.125-.566406.328124-.121094.203126-.121094.453126-.003906.65625l5.292969 9.261719c.121093.214844.355468.34375.601562.332031zm-.03125-1.984374-4.15625-7.277344h8.316406zm0 0" fill="#e0e0e0"/></svg>

<svg xmlns="http://www.w3.org/2000/svg" xmlns:xlink="http://www.w3.org/1999/xlink" width="16px" height="16px" viewBox="0 0 16 16" version="1.1">
<g id="surface1">
     <defs>
  <style id="current-color-scheme" type="text/css">
   .ColorScheme-Text { color:#eeeeee; } .ColorScheme-Highlight { color:#424242; }
  </style>
 </defs>
<path style="fill:currentColor" class="ColorScheme-Text" d="M 7.96875 13.351562 C 8.195312 13.339844 8.398438 13.214844 8.511719 13.019531 L 13.800781 3.757812 C 13.917969 3.554688 13.917969 3.304688 13.800781 3.101562 C 13.683594 2.898438 13.464844 2.773438 13.230469 2.773438 L 2.644531 2.773438 C 2.410156 2.773438 2.195312 2.898438 2.078125 3.101562 C 1.957031 3.304688 1.957031 3.554688 2.074219 3.757812 L 7.367188 13.019531 C 7.488281 13.234375 7.722656 13.363281 7.96875 13.351562 Z M 7.9375 11.367188 L 3.78125 4.089844 L 12.097656 4.089844 Z M 7.9375 11.367188 "/>
</g>
</svg>
